img/redes/whatsapp-icone.svg

<svg width="32" height="32" viewBox="0 0 32 32" fill="none" xmlns="http://www.w3.org/2000/svg">
<path d="M25.4001 6.54669C22.9067 4.04002 19.5867 2.66669 16.0534 2.66669C8.7734 2.66669 2.84007 8.60002 2.84007 15.88C2.84007 18.2134 3.4534 20.48 4.60007 22.48L2.7334 29.3334L9.7334 27.4934C11.6667 28.5467 13.8401 29.1067 16.0534 29.1067C23.3334 29.1067 29.2667 23.1734 29.2667 15.8934C29.2667 12.36 27.8934 9.04002 25.4001 6.54669ZM16.0534 26.8667C14.0801 26.8667 12.1467 26.3334 10.4534 25.3334L10.0534 25.0934L5.8934 26.1867L7.00007 22.1334L6.7334 21.72C5.64007 19.9734 5.0534 17.9467 5.0534 15.88C5.0534 9.82669 9.98673 4.89335 16.0401 4.89335C18.9734 4.89335 21.7334 6.04002 23.8001 8.12002C25.8801 10.2 27.0134 12.96 27.0134 15.8934C27.0401 21.9467 22.1067 26.8667 16.0534 26.8667ZM22.0801 18.6534C21.7467 18.4934 20.1201 17.6934 19.8267 17.5734C19.5201 17.4667 19.3067 17.4134 19.0801 17.7334C18.8534 18.0667 18.2267 18.8134 18.0401 19.0267C17.8534 19.2534 17.6534 19.28 17.3201 19.1067C16.9867 18.9467 15.9201 18.5867 14.6667 17.4667C13.6801 16.5867 13.0267 15.5067 12.8267 15.1734C12.6401 14.84 12.8001 14.6667 12.9734 14.4934C13.1201 14.3467 13.3067 14.1067 13.4667 13.92C13.6267 13.7334 13.6934 13.5867 13.8001 13.3734C13.9067 13.1467 13.8534 12.96 13.7734 12.8C13.6934 12.64 13.0267 11.0134 12.7601 10.3467C12.4934 9.70669 12.2134 9.78669 12.0134 9.77335C11.8134 9.77335 11.6001 9.77335 11.3734 9.77335C11.1467 9.77335 10.8001 9.85335 10.4934 10.1867C10.2001 10.52 9.34673 11.32 9.34673 12.9467C9.34673 14.5734 10.5334 16.1467 10.6934 16.36C10.8534 16.5867 13.0267 19.92 16.3334 21.3467C17.1201 21.6934 17.7334 21.8934 18.2134 22.04C19.0001 22.2934 19.7201 22.2534 20.2934 22.1734C20.9334 22.08 22.2534 21.3734 22.5201 20.6C22.8001 19.8267 22.8001 19.1734 22.7067 19.0267C22.6134 18.88 22.4134 18.8134 22.0801 18.6534Z" fill="#C6D5F8"/>
</svg>

<svg width="32" height="32" fill="none" xmlns="http://www.w3.org/2000/svg"><path d="M25.4 6.547a13.088 13.088 0 0 0-9.347-3.88C8.773 2.667 2.84 8.6 2.84 15.88c0 2.333.613 4.6 1.76 6.6l-1.867 6.853 7-1.84a13.217 13.217 0 0 0 6.32 1.614c7.28 0 13.214-5.934 13.214-13.214A13.13 13.13 0 0 0 25.4 6.547Zm-9.347 20.32c-1.973 0-3.906-.534-5.6-1.534l-.4-.24-4.16 1.094L7 22.133l-.267-.413a11.019 11.019 0 0 1-1.68-5.84c0-6.053 4.934-10.987 10.987-10.987A10.87 10.87 0 0 1 23.8 8.12a10.911 10.911 0 0 1 3.213 7.773c.027 6.054-4.906 10.974-10.96 10.974Zm6.027-8.214c-.333-.16-1.96-.96-2.253-1.08-.307-.106-.52-.16-.747.16-.227.334-.853 1.08-1.04 1.294-.187.226-.387.253-.72.08-.333-.16-1.4-.52-2.653-1.64-.987-.88-1.64-1.96-1.84-2.294-.187-.333-.027-.506.146-.68.147-.146.334-.386.494-.573.16-.187.226-.333.333-.547.107-.226.053-.413-.027-.573-.08-.16-.746-1.787-1.013-2.453-.267-.64-.547-.56-.747-.574h-.64c-.226 0-.573.08-.88.414-.293.333-1.146 1.133-1.146 2.76 0 1.626 1.186 3.2 1.346 3.413.16.227 2.334 3.56 5.64 4.987.787.346 1.4.546 1.88.693.787.253 1.507.213 2.08.133.64-.093 1.96-.8 2.227-1.573.28-.773.28-1.427.187-1.573-.094-.147-.294-.214-.627-.374Z" fill="#C6D5F8"/></svg>
